src/images_karasa_jaga_svg/cmd/sc_groupbox.svg

<svg height="16" viewBox="0 0 16 16" width="16" xmlns="http://www.w3.org/2000/svg"><g transform="scale(.125)"><path d="m16 24c-4.432 0-8 3.568-8 8v88c0 4.432 3.568 8 8 8h104c4.432 0 8-3.568 8-8v-88c0-4.432-3.568-8-8-8h-23.292969l-3.484375 8h26.777344v88h-104v-88h20.890625l3.654297-6.734375-.671875-1.265625zm45.71875 0-.548828 1.005859 3.808594 6.994141h9.923828l-3.650391-8z" fill="#818181"/><g fill="#565656" stroke-width="1.338214" transform="scale(.93026518 1.0749623)"><path d="m59.126435 23.261131 12.525686 19.912628h-9.528086l-7.494-13.542728-7.440471 13.542728h-9.313972l12.311572-19.644985-11.883343-19.3773436h9.528086l6.851657 12.8468576 7.172829-12.8468576h9.313971z"/><path d="m94.390057 28.721045v14.452714h-8.029286v-14.452714l-12.953915-24.5696146h8.939272l7.975757 17.2362006 7.440472-17.2362006h8.992803z"/></g></g></svg>

<?xml version="1.0" encoding="UTF-8" standalone="no"?>
<!-- Created with Inkscape (http://www.inkscape.org/) -->

<svg
   xmlns:dc="http://purl.org/dc/elements/1.1/"
   xmlns:cc="http://creativecommons.org/ns#"
   xmlns:rdf="http://www.w3.org/1999/02/22-rdf-syntax-ns#"
   xmlns:svg="http://www.w3.org/2000/svg"
   xmlns="http://www.w3.org/2000/svg"
   xmlns:sodipodi="http://sodipodi.sourceforge.net/DTD/sodipodi-0.dtd"
   xmlns:inkscape="http://www.inkscape.org/namespaces/inkscape"
   version="1.1"
   id="svg2"
   width="128"
   height="128"
   viewBox="0 0 128 128"
   sodipodi:docname="sc_groupbox.svg"
   inkscape:version="0.92.3 (unknown)"
   inkscape:export-filename="/home/rizmut/Dokumen/Rizmut/Github/libreoffice-style-karasa-jaga/build/images_karasa_jaga/cmd/sc_groupbox.png"
   inkscape:export-xdpi="12"
   inkscape:export-ydpi="12">
  <metadata
     id="metadata8">
    <rdf:RDF>
      <cc:Work
         rdf:about="">
        <dc:format>image/svg+xml</dc:format>
        <dc:type
           rdf:resource="http://purl.org/dc/dcmitype/StillImage" />
        <dc:title></dc:title>
      </cc:Work>
    </rdf:RDF>
  </metadata>
  <defs
     id="defs6" />
  <sodipodi:namedview
     pagecolor="#ffffff"
     bordercolor="#666666"
     borderopacity="1"
     objecttolerance="10"
     gridtolerance="10"
     guidetolerance="10"
     inkscape:pageopacity="0"
     inkscape:pageshadow="2"
     inkscape:window-width="1366"
     inkscape:window-height="706"
     id="namedview4"
     showgrid="true"
     inkscape:snap-page="true"
     inkscape:snap-global="true"
     inkscape:zoom="2.4494288"
     inkscape:cx="83.684952"
     inkscape:cy="94.5681"
     inkscape:window-x="0"
     inkscape:window-y="0"
     inkscape:window-maximized="1"
     inkscape:current-layer="svg2">
    <inkscape:grid
       type="xygrid"
       id="grid819"
       spacingx="8"
       spacingy="8"
       empspacing="1" />
  </sodipodi:namedview>
  <path
     style="opacity:1;fill:#818181;fill-opacity:1;stroke:none;stroke-width:2.17700768;stroke-linecap:round;stroke-linejoin:round;stroke-miterlimit:4;stroke-dasharray:6.53102303, 6.53102303000000006;stroke-dashoffset:0;stroke-opacity:1"
     d="M 16 24 C 11.568 24 8 27.568 8 32 L 8 120 C 8 124.432 11.568 128 16 128 L 120 128 C 124.432 128 128 124.432 128 120 L 128 32 C 128 27.568 124.432 24 120 24 L 96.707031 24 L 93.222656 32 L 120 32 L 120 120 L 16 120 L 16 32 L 36.890625 32 L 40.544922 25.265625 L 39.873047 24 L 16 24 z M 61.71875 24 L 61.169922 25.005859 L 64.978516 32 L 74.902344 32 L 71.251953 24 L 61.71875 24 z "
     id="rect858" />
  <text
     xml:space="preserve"
     style="font-style:normal;font-weight:normal;font-size:53.52857208px;line-height:125%;font-family:sans-serif;letter-spacing:0px;word-spacing:0px;fill:#565656;fill-opacity:1;stroke:none;stroke-width:1.3382144px;stroke-linecap:butt;stroke-linejoin:miter;stroke-opacity:1"
     x="36.697964"
     y="43.173759"
     id="text3917"
     transform="scale(0.93026518,1.0749623)"><tspan
       sodipodi:role="line"
       id="tspan3915"
       x="36.697964"
       y="43.173759"
       style="font-style:normal;font-variant:normal;font-weight:600;font-stretch:normal;font-family:FreeSans;-inkscape-font-specification:'FreeSans Semi-Bold';fill:#565656;fill-opacity:1;stroke-width:1.3382144px">XY</tspan></text>
</svg>
